X:98
T:McCahill's Reel
T:Gowel Reel
T:R\'il na Gaibhle
R:reel
H:Version 2 from Deirdre Shannon and Andy Dickson on Youtube
B:Version 3 from Ceol Rince na hEireann 1 #172 (3rd part 1st)
Z:id:hn-reel-98
M:C|
K:D
d2cd BdAF | EFGA BE~E2 | Ad~d2 fdAF | GBAG FDDA :|
|: B2^GB ADFA | B2^GB BcdA | B2^GB ADFA | GEFD EDB,D :|
|: e2^ge be^ge | Be^ge f^gaf | e2^ge be^ge | a2^ga faec :|
P:version 2
d2dA (3Bcd AF | EFGA BE~E2 | Ad~d2 fdAF | GBAG FDDA |
d2cd (3Bcd AF | EFGA BE~E2 | Ad~d2 fdAF | GBAG FDDA ||
|: B2GB ADFA | B2GB BcdA | BAGB ADFA | GEFD EFGA :|
|: e2 (3gfe bege | Bege fgaf | e2 (3gfe bege |1 affe fedf :|2 affe fedc ||
P:version 3
|: Bdcd B2AF | GFGA BE~E2 | Bdcd B2AF | GBAG FDD2 :|
|: BAFA A2FA | BAFA Bdd2 | BAFA ADFD | GEFD E3z :|
|: e2fe befe | e2ag fgaf | e2fe befe |1 fgag fedB :|2 fgag fed2 ||

